X: 5556
T: Burren, The
R: reel
M: 4/4
K: Dmajor
F|A2 AB BF F2|AFAd f2 fg|afef dB B2|dBAF EFDF|
A2 AB AFF2|AFAd f2 fg|afef dB B2|Affe d3:|
|:e|fded BdAF|AFAd a2af|g2 fg eB B2|dBAF EFDF|
A2 AB AF F2|AFAd f2 fg|afef dB B2|Affe d3:|

